X: 10071
T: Dickeystown Hop, The
R: slip jig
M: 9/8
K: Gmajor
gdB gdc BAG|ABc Ade fga|gdB gdc BAG|ABc AGF GBd|
gdB gdc BAG|ABc Ade fga|gdB gdc BAG|ABc AGF G2E||
DEG GAB d3|DEG GAB AGE|DEG GAB d2B|cAB GAE GED|
DEG GAB d2D|DEG GAB AGE|DEG GAB d2B|cAB GAE GED||

